X:1168
T:March of the 44th. Regt.
M:C|
L:1/8
Q:1/2=80
I: :: ::
Z:Jack Campin * www.campin.me.uk * 2009
K:G
B>c|d2   B>d  c2   A>c |B2  G>B    A2      F>A |  G>A```````B>c {e}d2    cB       |  A2     D>D D2
B>c|d>g``B>d  c>e``A>c |B>d`G>B (3(ABc) (3(FGA)|  G>e```````d>c    B2   TA3/G//A//|  G2     G>G G2:|
B>c|d>B``d>B  g>a``g>B |c>A`c>A    a>b`````a>A |(3BGB     (3dBd  (3gdg (3bag      |(3a>bg (3f>ge d2
B>c|d2(3(DBd) c2(3(DAc)|B2(3DGB (3(A>BG) (3F>ED|(3E>FE {d}(3cBA    G2   TF3/E//F//|  G2     G>G G2:|

